packages/katcn/src/icons/svg/minimize.svg

<svg xmlns="http://www.w3.org/2000/svg" fill="none" viewBox="0 0 24 24"><path fill="#000" d="M15.3 22c-.6 0-1-.4-1-1v-2.5c0-2.4 1.9-4.3 4.3-4.3H21c.6 0 1 .4 1 1s-.4 1-1 1h-2.5c-1.3 0-2.3 1-2.3 2.3V21c.1.6-.4 1-.9 1m-6.6 0c-.6 0-1-.4-1-1v-2.5c0-1.3-1-2.3-2.3-2.3H3c-.6 0-1-.4-1-1s.4-1 1-1h2.5c2.4 0 4.3 1.9 4.3 4.3V21c-.1.6-.5 1-1.1 1M5.5 9.7H3c-.6 0-1-.4-1-1s.4-1 1-1h2.5c1.3 0 2.3-1 2.3-2.3V3c0-.6.4-1 1-1s1 .4 1 1v2.5c-.1 2.3-2 4.2-4.3 4.2m15.5 0h-2.5c-2.4 0-4.3-1.9-4.3-4.3V3c0-.6.4-1 1-1s1 .4 1 1v2.5c0 1.3 1 2.3 2.3 2.3H21c.6 0 1 .4 1 1s-.4.9-1 .9"/></svg>

<svg width="24" height="24" viewBox="0 0 24 24" fill="none" xmlns="http://www.w3.org/2000/svg">
<path d="M15.3 22C14.7 22 14.3 21.6 14.3 21V18.5C14.3 16.1 16.2 14.2 18.6 14.2H21C21.6 14.2 22 14.6 22 15.2C22 15.8 21.6 16.2 21 16.2H18.5C17.2 16.2 16.2 17.2 16.2 18.5V21C16.3 21.6 15.8 22 15.3 22Z" fill="black"/>
<path d="M8.7 22C8.1 22 7.7 21.6 7.7 21V18.5C7.7 17.2 6.7 16.2 5.4 16.2H3C2.4 16.2 2 15.8 2 15.2C2 14.6 2.4 14.2 3 14.2H5.5C7.9 14.2 9.8 16.1 9.8 18.5V21C9.7 21.6 9.3 22 8.7 22Z" fill="black"/>
<path d="M5.5 9.7H3C2.4 9.7 2 9.3 2 8.7C2 8.1 2.4 7.7 3 7.7H5.5C6.8 7.7 7.8 6.7 7.8 5.4V3C7.8 2.4 8.2 2 8.8 2C9.4 2 9.8 2.4 9.8 3V5.5C9.7 7.8 7.8 9.7 5.5 9.7Z" fill="black"/>
<path d="M21 9.7H18.5C16.1 9.7 14.2 7.8 14.2 5.4V3C14.2 2.4 14.6 2 15.2 2C15.8 2 16.2 2.4 16.2 3V5.5C16.2 6.8 17.2 7.8 18.5 7.8H21C21.6 7.8 22 8.2 22 8.8C22 9.4 21.6 9.7 21 9.7Z" fill="black"/>
</svg>
